X:1
T:Franse Polka
T:Polka Jo-Jo
C:Trad.
O:Vlaanderen
A:Boortmeerbeek
Z:Bart Vanhaverbeke 
L:1/8
M:C
K:F
P:Voorspel
HF4 HC4 | HA4 HF4 | c>c cc dc BA | G2 c2 F4 ||
P:A
M:C|
F2 F2 F2 F2 | F>EF>G A4 | A2 A2 A2 A2 | A>GA>B c4 | B>cd>B G4 | A>Bc>A F4 | 
G>A B>G E2 C>C | F>EF>A c4 | B>cd>B G4 | A>Bc>A F4 | G>A B>G E2 C>C |1 F2 F2 F CDE :|2 F2 F2 F z z2 ||
P:B
M:C
HF4 HC4 | HA4 HF4 | c>c cc dcBA | G2 c2 cBAG | HF4 HC4 | HA4 HF4 | c>c cc dc BA | G2 c2 F2 z2|
